X: 47
T:Rolling Reel (#243), The
M:4/4
L:1/8
S:Capt. F. O'Neill
R:Reel
K:G
EA (3AAA cA (3AAA|BGGF GABd|(3efg dB A2 "tr"ge|dBGB cA A2:||
eaag a2 bg|a2 bg agef|g2 "tr"gf gaba|gedB BA A2|
eaag a2 bg|a2 bg agef|gedB cdef|gedB cABG||

